packages/tokens/icons/magicLink/size32Px.svg

<svg viewBox="0 0 32 32" fill="none" xmlns="http://www.w3.org/2000/svg" width="1em" height="1em"><path d="M16.0001 16L2.50011 19.5L9.00011 23L11.5001 29.5L16.0001 16Z" stroke="currentColor" stroke-linecap="round" stroke-linejoin="round"/><path d="M21.5 12.5L21.5 16.5" stroke="currentColor" stroke-linecap="round"/><path d="M21.5 4.5L21.5 8.5" stroke="currentColor" stroke-linecap="round"/><path d="M15.4999 10.5L19.4999 10.5" stroke="currentColor" stroke-linecap="round"/><path d="M23.4999 10.5L27.4999 10.5" stroke="currentColor" stroke-linecap="round"/><path d="M25.4999 17.5H29.4999" stroke="currentColor" stroke-linecap="round"/><path d="M27.4998 15.5L27.4998 19.5" stroke="currentColor" stroke-linecap="round"/><path d="M13.5002 4.50012L17.5002 4.47754" stroke="currentColor" stroke-linecap="round"/><path d="M15.5002 2.5L15.5002 6.5" stroke="currentColor" stroke-linecap="round"/></svg>

<svg xmlns="http://www.w3.org/2000/svg" fill="none" viewBox="0 0 32 32" width="1em" height="1em"><path stroke="currentColor" stroke-linecap="round" stroke-linejoin="round" d="M16 16 2.5 19.5 9 23l2.5 6.5L16 16Z"/><path stroke="currentColor" stroke-linecap="round" d="M21.5 12.5v4m0-12v4m-6 2h4m4 0h4m-2 7h4m-2-2v4m-14-15 4-.022m-2-1.978v4"/></svg>
